client/public/assets/icons/utility/campaign.svg

<?xml version="1.0"?><svg xmlns="http://www.w3.org/2000/svg" width="52" height="52" viewBox="0 0 52 52"><path fill="#fff" d="m26 0.8c-13.9 0-25.2 11.3-25.2 25.2s11.3 25.2 25.2 25.2 25.2-11.3 25.2-25.2-11.3-25.2-25.2-25.2z m0 45.4c-11.1 0-20.2-9.1-20.2-20.2s9.1-20.2 20.2-20.2 20.2 9.1 20.2 20.2-9.1 20.2-20.2 20.2z m0-35.3c-8.3 0-15.1 6.8-15.1 15.1s6.8 15.1 15.1 15.1 15.1-6.8 15.1-15.1-6.8-15.1-15.1-15.1z m0 25.2c-5.5 0-10.1-4.5-10.1-10.1s4.6-10.1 10.1-10.1 10.1 4.6 10.1 10.1-4.6 10.1-10.1 10.1z m0-15.1c-2.8 0-5 2.3-5 5s2.3 5 5 5 5-2.3 5-5-2.2-5-5-5z"></path></svg>

<?xml version="1.0" encoding="utf-8"?>
<!-- Generator: Adobe Illustrator 21.0.2, SVG Export Plug-In . SVG Version: 6.00 Build 0)  -->
<svg version="1.1" id="Layer_1" xmlns="http://www.w3.org/2000/svg" xmlns:xlink="http://www.w3.org/1999/xlink" x="0px" y="0px"
	 width="52px" height="52px" viewBox="0 0 52 52" enable-background="new 0 0 52 52" xml:space="preserve">
<path fill="#FFFFFF" d="M26,0.8C12.1,0.8,0.8,12.1,0.8,26S12.1,51.2,26,51.2S51.2,39.9,51.2,26S39.9,0.8,26,0.8z M26,46.2
	C14.9,46.2,5.8,37.1,5.8,26S14.9,5.8,26,5.8S46.2,14.9,46.2,26S37.1,46.2,26,46.2z M26,10.9c-8.3,0-15.1,6.8-15.1,15.1
	S17.7,41.1,26,41.1S41.1,34.3,41.1,26S34.3,10.9,26,10.9z M26,36.1c-5.5,0-10.1-4.5-10.1-10.1S20.5,15.9,26,15.9S36.1,20.5,36.1,26
	S31.5,36.1,26,36.1z M26,21c-2.8,0-5,2.3-5,5s2.3,5,5,5s5-2.3,5-5S28.8,21,26,21z"/>
</svg>
